!!!ONB: MCCC : IJH0414_03 : Extracted Monophonic Melody
!!!COM: Haydn, Joseph
!!!OPR: String Quartet in B-flat major
!!!OMV: 3
!!!SCT: Hob.III:78 ; Op.76 No.4
!!!ODT: 1796///
**kern
*thru
*k[b-e-]
*B-:
*clefF
*M3/4
8a
8b-
=1
8a
8b-
8a
8b-
8dd
8b-
=2
4ff
4ff
8a
8b-
=3
8a
8b-
8a
8b-
8dd
8b-
=4
4ff
4ff
8a
8b-
=5
8a
8b-
8a
8b-
8gg
8b-
=6
8bb-
8b-
8bb-
8b-
8bb-
8b-
=7
8bb-
8gg
8ee
8cc
8b-
8g
=8
4f
2r
=9
4r
4r
8gg
8ff#
=10
8gg
8ee-
8cc
8ee-
4r
=11
4r
4r
8bb-
8aa
=12
8bb-
8ff
8dd
8ff
8aa-
8gg
=13
8gg
8ee-
8cc
8ee-
8gg
8ff
=14
8ff
8dd
8b-
8dd
8ff
8ee-
=15
8ee-
8cc
8a
8cc
8ee-
8dd
=16
8dd
8b-
8g
8b-
4gg
=17
4gg
4gg
4gg
=18
4ff#
4r
8f#
8g
=19
8f#
8g
8f#
8g
8b-
8g
=20
8g#
8a
8g#
8a
8cc
8a
=21
8cc
8b
8cc
8b
8dd
8cc
=22
8ee-
8dd
8ff
8ee-
8gg
8ff#
=23
8gg
8ff
8ee-
8dd
8cc
8b-
=24
8a
8f
8e
8f
8e
8f
=25
8r
8g
8f#
8g
8f#
8g
=26
8r
8a
8g#
8a
8g#
8a
=27
4r
4r
8a
8b-
=28
8a
8b-
8a
8b-
8a
8b-
=29
8a
8b-
8a
8b-
8dd
8b-
=30
4ff
4ff
8a
8b-
=31
8a
8b-
8a
8b-
8dd
8b-
=32
4gg
4gg
8b
8cc
=33
8b
8cc
8b
8cc
8aa
8cc
=34
8bb-
8b-
8bb-
8b-
8bb-
8b-
=35
8bb-
8gg
8ee-
8cc
8a
8f
=36
4b-
2r
=37
4r
4r
4gg
=38
4ff
4ff
4r
=39
4r
4r
4gg
=40
4ff
4ff
8aa
8bb-
=41
8aa
8bb-
8aa
8bb-
8ff
8dd
=42
8ff#
8gg
8ff#
8gg
8ee-
8cc
=43
8b
8cc
8b
8cc
8ee-
8a
=44
4b-
4dd
4ff
=45
4bb-
4ddd
4fff
=46
8b
8cc
8b
8cc
8ee-
8a
=47
4b-
4dd
4ff
=48
4bb-
4ddd
4fff
=49
8b
8cc
8b
8cc
8ee-
8a
=50
4b-
2r
=51
4b-
2r
=52
4r
4r
4ff[
=53
4ff]
4gg
4ff
=54
4ee
4ff
8ee-
8dd
=55
4cc
4ee-
8dd
8cc
=56
2.b-[
=57
2b-]
4a-
=58
4g-
4f
4e-
=59
2.f[
=60
2f]
4ff[
=61
4ff]
4gg
4ff
=62
4ee
4ff
8ee-
8dd
=63
4cc
4ee-
8dd
8cc
=64
2.b-[
=65
2b-]
4a-
=66
4g-
4f
4e-
=67
2.f[
=68
2f]
4cc[
=69
4cc]
4dd
4cc
=70
2.ff[
=71
4ff]
4gg
4ff
=72
2.bb-[
=73
4bb-]
4ccc
4bb-
=74
4aa
4bb-
8aa
8gg
=75
4ff#
4gg
8ff
8ee-
=76
4dd
4ee-
8dd
8cc
=77
8b
8cc
8ee-
8dd
8cc
8b-
=78
8a
8g
8f
8e-
8d
8c
=79
2.B-[
=80
2B-]
4ff[
=81
4ff]
4gg
4ff
=82
4ee
4ff
8ee-
8dd
=83
4cc
4ee-
8dd
8cc
=84
2.b-[
=85
2b-]
4a-
=86
4g-
4f
4e-
=87
2.f[
=88
2f]
4ff[
=89
4ff]
4gg
4ff
=90
4ee
4ff
4bb-[
=91
4bb-]
4ccc
4bb-
=92
4aa
4bb-
8ccc
8bb-
=93
4aa
4bb-
8ccc
8bb-
=94
4aa
4bb-
8ccc
8bb-
=95
4aa
4bb-
8ccc
8ddd
=96
4eee-
4ccc
4aa
=97
4ff
4ee-
12cc
12a
12f
=98
2e-
4r
=99
2.r
=100
4r
4r
4ff[
=101
4ff]
4gg
4ff
=102
4ee
4ff
4r
=103
4bb-
4aa
4r
=104
4ccc
4bb-
4r
=105
4g
4f
4r
=106
4e-
4d
4r
==
*-
